ix/medal-star_bulk.svg

<svg viewBox="0 0 24 24" fill="none" xmlns="http://www.w3.org/2000/svg" height="1em" width="1em">
  <path opacity="0.4" d="M19 9C19 10.45 18.57 11.78 17.83 12.89C16.75 14.49 15.04 15.62 13.05 15.91C12.71 15.97 12.36 16 12 16C11.64 16 11.29 15.97 10.95 15.91C8.96 15.62 7.25 14.49 6.17 12.89C5.43 11.78 5 10.45 5 9C5 5.13 8.13 2 12 2C15.87 2 19 5.13 19 9Z" fill="#292D32"/>
  <path d="M21.2491 18.4699L19.5991 18.8599C19.2291 18.9499 18.9391 19.2299 18.8591 19.5999L18.5091 21.0699C18.3191 21.8699 17.2991 22.1099 16.7691 21.4799L11.9991 15.9999L7.2291 21.4899C6.6991 22.1199 5.6791 21.8799 5.4891 21.0799L5.1391 19.6099C5.0491 19.2399 4.7591 18.9499 4.3991 18.8699L2.7491 18.4799C1.9891 18.2999 1.7191 17.3499 2.2691 16.7999L6.1691 12.8999C7.2491 14.4999 8.9591 15.6299 10.9491 15.9199C11.2891 15.9799 11.6391 16.0099 11.9991 16.0099C12.3591 16.0099 12.7091 15.9799 13.0491 15.9199C15.0391 15.6299 16.7491 14.4999 17.8291 12.8999L21.7291 16.7999C22.2791 17.3399 22.0091 18.2899 21.2491 18.4699Z" fill="#292D32"/>
  <path d="M12.58 5.98L13.17 7.15999C13.25 7.31999 13.46 7.48 13.65 7.51L14.72 7.68999C15.4 7.79999 15.56 8.3 15.07 8.79L14.24 9.61998C14.1 9.75998 14.02 10.03 14.07 10.23L14.31 11.26C14.5 12.07 14.07 12.39 13.35 11.96L12.35 11.37C12.17 11.26 11.87 11.26 11.69 11.37L10.69 11.96C9.96997 12.38 9.53997 12.07 9.72997 11.26L9.96997 10.23C10.01 10.04 9.93997 9.75998 9.79997 9.61998L8.96997 8.79C8.47997 8.3 8.63997 7.80999 9.31997 7.68999L10.39 7.51C10.57 7.48 10.78 7.31999 10.86 7.15999L11.45 5.98C11.74 5.34 12.26 5.34 12.58 5.98Z" fill="#292D32"/>
</svg>

<svg viewBox="0 0 24 24" fill="none" xmlns="http://www.w3.org/2000/svg" height="1em" width="1em">
  <path opacity=".4" d="M19 9c0 1.45-.43 2.78-1.17 3.89a6.985 6.985 0 0 1-4.78 3.02c-.34.06-.69.09-1.05.09-.36 0-.71-.03-1.05-.09a6.985 6.985 0 0 1-4.78-3.02A6.968 6.968 0 0 1 5 9c0-3.87 3.13-7 7-7s7 3.13 7 7Z" fill="#292D32"/>
  <path d="m21.25 18.47-1.65.39c-.37.09-.66.37-.74.74l-.35 1.47a1 1 0 0 1-1.74.41L12 16l-4.77 5.49a1 1 0 0 1-1.74-.41l-.35-1.47a.996.996 0 0 0-.74-.74l-1.65-.39a1.003 1.003 0 0 1-.48-1.68l3.9-3.9a6.985 6.985 0 0 0 4.78 3.02c.34.06.69.09 1.05.09.36 0 .71-.03 1.05-.09 1.99-.29 3.7-1.42 4.78-3.02l3.9 3.9c.55.54.28 1.49-.48 1.67ZM12.58 5.98l.59 1.18c.08.16.29.32.48.35l1.07.18c.68.11.84.61.35 1.1l-.83.83c-.14.14-.22.41-.17.61l.24 1.03c.19.81-.24 1.13-.96.7l-1-.59a.701.701 0 0 0-.66 0l-1 .59c-.72.42-1.15.11-.96-.7l.24-1.03c.04-.19-.03-.47-.17-.61l-.83-.83c-.49-.49-.33-.98.35-1.1l1.07-.18c.18-.03.39-.19.47-.35l.59-1.18c.29-.64.81-.64 1.13 0Z" fill="#292D32"/>
</svg>
